source/img/sprite/logo-vk.svg

<svg width="14" height="8" viewBox="0 0 14 8" fill="none" xmlns="http://www.w3.org/2000/svg">
<path d="M13.9258 7.22585C13.9088 7.18926 13.893 7.15891 13.8783 7.13459C13.6354 6.69645 13.1712 6.15865 12.4861 5.52106L12.4716 5.50646L12.4643 5.4993L12.457 5.49196H12.4497C12.1387 5.19506 11.9418 4.99543 11.8593 4.89323C11.7084 4.69854 11.6746 4.50147 11.7571 4.30179C11.8154 4.15092 12.0342 3.83232 12.4131 3.34554C12.6125 3.08756 12.7703 2.8808 12.8869 2.72502C13.7276 1.60555 14.0921 0.8902 13.9803 0.578677L13.9369 0.505878C13.9077 0.462051 13.8324 0.421956 13.711 0.385391C13.5894 0.348902 13.434 0.342868 13.2444 0.367185L11.1452 0.381709C11.1111 0.369639 11.0626 0.370764 10.9993 0.385391C10.9361 0.400017 10.9045 0.407356 10.9045 0.407356L10.868 0.425639L10.839 0.447603C10.8147 0.462127 10.788 0.487672 10.7588 0.524187C10.7297 0.560573 10.7055 0.603275 10.6861 0.651935C10.4575 1.24084 10.1977 1.78838 9.90602 2.29452C9.7262 2.59633 9.56107 2.85789 9.41026 3.07935C9.25966 3.30074 9.1333 3.46385 9.03133 3.56841C8.92921 3.67307 8.83705 3.75691 8.75428 3.82025C8.67163 3.88361 8.60855 3.91038 8.56486 3.90059C8.52108 3.8908 8.47985 3.88108 8.44081 3.87136C8.37282 3.82754 8.31813 3.76793 8.2769 3.6925C8.23549 3.61707 8.20761 3.52212 8.19303 3.40775C8.17853 3.2933 8.16995 3.19485 8.1675 3.11208C8.16523 3.02941 8.16628 2.91248 8.17121 2.76161C8.17626 2.61067 8.17853 2.50854 8.17853 2.455C8.17853 2.27002 8.18213 2.06927 8.18936 1.85269C8.19671 1.63611 8.20266 1.46451 8.20764 1.33809C8.21259 1.21154 8.21489 1.07766 8.21489 0.936508C8.21489 0.79536 8.20631 0.684665 8.18936 0.604324C8.17261 0.524084 8.1469 0.446197 8.11302 0.370688C8.07894 0.295256 8.02905 0.236904 7.96359 0.19548C7.898 0.154108 7.81646 0.121275 7.71941 0.0968811C7.46183 0.0385041 7.13384 0.00692482 6.73528 0.00201533C5.83147 -0.00770139 5.25072 0.0507522 4.99317 0.1773C4.89112 0.230767 4.79878 0.303821 4.71621 0.396232C4.62872 0.503346 4.61651 0.5618 4.67968 0.571415C4.97129 0.615166 5.17773 0.719825 5.29923 0.88529L5.34302 0.972971C5.37707 1.03623 5.41108 1.14823 5.44511 1.30881C5.47909 1.46939 5.50103 1.64703 5.51068 1.84162C5.53493 2.19697 5.53493 2.50115 5.51068 2.7542C5.48635 3.00734 5.46337 3.20441 5.44144 3.34556C5.41951 3.48671 5.38672 3.60109 5.34302 3.68866C5.29923 3.77627 5.2701 3.82981 5.2555 3.84925C5.24092 3.86868 5.22877 3.88093 5.21912 3.88573C5.15595 3.90998 5.09026 3.92233 5.02227 3.92233C4.95418 3.92233 4.87162 3.88822 4.77445 3.82004C4.6773 3.75187 4.57648 3.65824 4.47198 3.53898C4.36749 3.41969 4.24964 3.253 4.11838 3.03887C3.98723 2.82475 3.85115 2.57168 3.71023 2.27966L3.59363 2.06789C3.52074 1.93165 3.42117 1.73328 3.29481 1.47295C3.16839 1.21251 3.05664 0.960595 2.95949 0.717242C2.92066 0.615038 2.86232 0.537227 2.78458 0.483683L2.7481 0.461718C2.72385 0.442285 2.68491 0.421649 2.6315 0.399659C2.57801 0.377694 2.5222 0.361943 2.46384 0.352251L0.466599 0.366776C0.262507 0.366776 0.124028 0.413083 0.0511125 0.505571L0.0219309 0.549322C0.00735285 0.57369 0 0.612608 0 0.666178C0 0.719722 0.014578 0.785438 0.0437596 0.863249C0.33532 1.54956 0.652386 2.21144 0.994957 2.84901C1.33753 3.48658 1.63522 4.00016 1.88784 4.38929C2.14052 4.7787 2.39807 5.14622 2.6605 5.49168C2.92293 5.83726 3.09665 6.05872 3.18164 6.15602C3.26673 6.25349 3.33357 6.32637 3.38216 6.37503L3.56442 6.55021C3.68104 6.66704 3.8523 6.80696 4.07828 6.96997C4.3043 7.13309 4.55453 7.29367 4.82908 7.45197C5.10369 7.61002 5.42316 7.739 5.78766 7.83875C6.15211 7.9386 6.50683 7.97867 6.85188 7.95934H7.69016C7.86017 7.94464 7.98897 7.89109 8.07651 7.79868L8.10552 7.76209C8.12502 7.73304 8.14328 7.68791 8.16013 7.62718C8.17718 7.56635 8.18566 7.49933 8.18566 7.42643C8.18068 7.21719 8.19658 7.02861 8.23294 6.86071C8.26927 6.69287 8.31068 6.56632 8.35699 6.48109C8.40328 6.39595 8.45552 6.32409 8.51365 6.26584C8.57191 6.20747 8.61342 6.1721 8.63778 6.15993C8.66198 6.14768 8.68131 6.13937 8.69589 6.13439C8.81251 6.09547 8.94976 6.13316 9.10785 6.24764C9.26581 6.36201 9.41396 6.50324 9.55254 6.67108C9.69105 6.83908 9.85746 7.02756 10.0518 7.2368C10.2463 7.44612 10.4163 7.60171 10.562 7.70407L10.7078 7.79167C10.8051 7.85013 10.9314 7.90367 11.087 7.95233C11.2422 8.00097 11.3782 8.01314 11.495 7.98882L13.361 7.95967C13.5456 7.95967 13.6892 7.92906 13.7911 7.86833C13.8931 7.8075 13.9538 7.74048 13.9733 7.66758C13.9928 7.5946 13.9939 7.51181 13.977 7.41924C13.9597 7.32691 13.9427 7.26234 13.9258 7.22585Z" fill="#2D383F"/>
</svg>

<svg viewBox="0 0 14 8" fill="none" xmlns="http://www.w3.org/2000/svg"><path d="M13.93 7.23a7.27 7.27 0 0 0-1.44-1.7l-.02-.02v-.01h-.02l-.6-.6c-.14-.2-.18-.4-.1-.6.07-.15.28-.47.66-.95l.48-.62c.84-1.12 1.2-1.84 1.09-2.15l-.04-.07c-.03-.05-.1-.09-.23-.12a1.15 1.15 0 0 0-.47-.02l-2.1.01a.27.27 0 0 0-.14 0l-.1.03-.03.02-.03.02a.32.32 0 0 0-.08.07 3.77 3.77 0 0 1-2 3.3c-.09.06-.15.09-.2.08a5.31 5.31 0 0 1-.12-.03.49.49 0 0 1-.16-.18.8.8 0 0 1-.09-.28 3.14 3.14 0 0 1-.02-.65 10.86 10.86 0 0 0 .02-.9 104.37 104.37 0 0 1 .02-.92c0-.14 0-.26-.02-.34a1.14 1.14 0 0 0-.08-.23.4.4 0 0 0-.15-.17.84.84 0 0 0-.24-.1 4.84 4.84 0 0 0-.98-.1c-.9 0-1.49.05-1.75.18-.1.05-.2.12-.27.22-.1.1-.1.16-.04.17.3.05.5.15.62.32l.04.08a3.4 3.4 0 0 1 .17.87 5.7 5.7 0 0 1-.17 1.85l-.08.16a.13.13 0 0 1-.04.04.55.55 0 0 1-.2.03c-.07 0-.15-.03-.25-.1s-.2-.16-.3-.28a8.73 8.73 0 0 1-.76-1.26l-.12-.21a18.24 18.24 0 0 1-.63-1.35.48.48 0 0 0-.18-.24l-.03-.02a.77.77 0 0 0-.28-.1h-2c-.2 0-.35.05-.42.15l-.03.04a.24.24 0 0 0-.02.12c0 .05.01.12.04.2a24.1 24.1 0 0 0 2.62 4.62 16.16 16.16 0 0 0 .72.89l.18.17a8.76 8.76 0 0 0 1.26.9 4.07 4.07 0 0 0 2.03.5h.84c.17 0 .3-.06.39-.15l.03-.04a.74.74 0 0 0 .08-.34c0-.2 0-.4.04-.56.04-.17.08-.3.13-.38a.93.93 0 0 1 .28-.32.47.47 0 0 1 .06-.03c.11-.03.25 0 .4.12.17.11.31.25.45.42.14.17.3.36.5.57.2.2.37.36.51.46l.15.1c.1.05.22.1.38.15.15.05.29.06.4.04l1.87-.03c.19 0 .33-.03.43-.1.1-.05.16-.12.18-.2a.57.57 0 0 0 0-.24.92.92 0 0 0-.04-.2Z" fill="#2D383F"/></svg>
